X: 10
T:St Anne's Reel
C:Trad
N:From Meic Goodyear via Lewes Arms and Ram Inn tune sessions.
M:4/4
L:1/8
K:D
|:fgfe dedB|A2FF DF A2|B2GG DG B2|A2FF DF A2|
fedf edcB|A2FF DF A2|BGBd cAcd|e2dc d4:|
|:a2fd Adfg|a2gf g2ef|gfed cdef|b2a^g a4|
a2fd Adfg|a2gf g2ef|gfed cdeg|f2d2d4:|

